X:200
M:6/8
L:1/8
K:G
|:gdB G2B|eag fef|gdB G2d|Eed ^cBc|d2D d2D|def gfe|faf e^cA|dAG FED:|
|:"tr"gfg "tr"gfg|"tr"gfg dBG|"tr"gfg "tr"gfg|gbg afd|"tr"gfg "tr"gfg|"tr"gfg dBG|c2e B2d|ABG FED:|





